packages/components/bolt-icons/src/svgs/pega/pega-arrows-high-low.svg

<svg viewBox="0 0 32 32" xmlns="http://www.w3.org/2000/svg"><path fill="#fff" d="m32 6.85a1 1 0 0 0 -.08-.39.69.69 0 0 0 -.13-.2.54.54 0 0 0 -.09-.12l-5.7-5.69a1 1 0 1 0 -1.41 1.42l4 4h-5.07a8.77 8.77 0 0 0 -8.49 9v3.32a8.51 8.51 0 0 0 -6.55-3h-5.05l4-4a1 1 0 0 0 0-1.41 1 1 0 0 0 -1.43-.06l-5.7 5.69a1 1 0 0 0 -.09.13.69.69 0 0 0 -.13.2 1 1 0 0 0 -.08.38h0a1.42 1.42 0 0 0 0 .2.58.58 0 0 0 0 .18 1.19 1.19 0 0 0 .22.33l5.78 5.69a.94.94 0 0 0 .7.29 1 1 0 0 0 .7-1.7l-4-4h5.08a6.43 6.43 0 0 1 6.52 6.37v7.36a1 1 0 0 0 1 1 1 1 0 0 0 1-1v-16a6.77 6.77 0 0 1 6.49-7h5.05l-4 4a1 1 0 0 0 .7 1.71 1 1 0 0 0 .71-.29l5.75-5.7a1 1 0 0 0 .22-.33.53.53 0 0 0 0-.18 1.42 1.42 0 0 0 .08-.2z"/></svg>

<svg id="icon-arrows-high-low" data-name="arrows-high-low" xmlns="http://www.w3.org/2000/svg" viewBox="0 0 32 32"><path d="M32,6.85h0a1,1,0,0,0-.08-.39.69.69,0,0,0-.13-.2.54.54,0,0,0-.09-.12L26,.45a1,1,0,1,0-1.41,1.42l4,4H23.52a8.77,8.77,0,0,0-8.49,9v3.32a8.51,8.51,0,0,0-6.55-3H3.43l4-4a1,1,0,0,0,0-1.41A1,1,0,0,0,6,9.72L.3,15.41a1,1,0,0,0-.09.13.69.69,0,0,0-.13.2,1,1,0,0,0-.08.38H0a1.42,1.42,0,0,0,0,.2.58.58,0,0,0,0,.18,1.19,1.19,0,0,0,.22.33L6,22.52a.94.94,0,0,0,.7.29,1,1,0,0,0,.7-1.7l-4-4H8.48A6.43,6.43,0,0,1,15,23.48v7.36a1,1,0,0,0,1,1H16a1,1,0,0,0,1-1v-16a6.77,6.77,0,0,1,6.49-7h5.05l-4,4a1,1,0,0,0,.7,1.71,1,1,0,0,0,.71-.29L31.7,7.56a1,1,0,0,0,.22-.33.53.53,0,0,0,0-.18A1.42,1.42,0,0,0,32,6.85Z"/></svg>
